!!!!SEGMENT: pl-cz--iii-50--005_brykner-jerzy--vesperae-laudate-dominum.krn
!!!cenid: 17xx:847
!!!COM: Brykner, Jerzy
!!!COM-rismID: pe30025739
!!!CDT: 1705-1760
!!!CNT: Polish
!!!OPR: Vesperae
!!!OTL: Laudate Dominum
!!!OMV: 005
!!!PDT:
!!!AGN: Sacred; Vespers
!!!SMS-siglum: PL-CZ
!!!SMS-shelfmark: III-50
!!!SMS-shelfwork: 001-005 M
!!!SMS-variant:
!!!SMS-altvar:
!!!NIFC-rismSourceID: 300033583
!!!NIFC-rismChildID: 300033583
!!!NIFC-islandoraID: pl-cz:38729
!!!URL-pdf-islandora: https://repozytorium.nifc.pl/islandora/object/pl-cz%3A38729/datastream/PDF/view
!!!URL-scan: https://polish.musicsources.pl/pl/lokalizacje/galeria/rekopisy/6940/1 @EN{Scan on Polish Music Sources Website} @PL{Skany w portalu Dziedzictwo Muzyki Polskiej w otwartym dostępie}
!!!IIIF:
!!!ONB-nifc: UWAGA: części Vesperae: Dixit Dominus, Confitebor, Beatus vir, Laudate pueri, Laudate Dominum, In exitu, Laetatus sum, Nisi Dominus, Lauda Jerusalem, Credidi, In convertendo, Domine probasti me, Memento Domine David, Confitebor, De profundis, Beati omnes, Magnificat
!!!AIN: 1 empty 1 organ 2 violn 1 vox
!!!key:
**kern	**fb	**kern	**kern	**kern	**text	**kern	**text	**text
*part5	*	*part4	*part3	*part2	*part2	*part1	*part1	*part1
*group	*	*group2	*group2	*group1	*group1	*group1	*group1	*group1
*staff5	*	*staff4	*staff3	*staff2	*staff2	*staff1	*staff1	*staff1
*Iorgan	*	*Ivioln	*Ivioln	*Iempty	*	*Ivox	*	*
*I"Organo.	*	*I"Violino Secundo.	*I"Violini Primo.	*I"Baſso.	*	*I"Canto.	*	*
*I'org	*	*I'vl 2	*I'vl 1	*I'B	*	*I'S	*	*
*clefF4	*	*clefG2	*clefG2	*clefF4	*	*clefC1	*	*
*k[f#c#]	*	*k[f#c#]	*k[f#c#]	*k[f#c#]	*	*k[f#c#]	*	*
*D:	*	*D:	*D:	*D:	*	*D:	*	*
*M4/4	*	*M4/4	*M4/4	*M4/4	*	*M4/4	*	*
*met(c)	*	*met(c)	*met(c)	*met(c)	*	*met(c)	*	*
=1	=1	=1	=1	=1	=1	=1	=1	=1
*	*below	*	*	*	*	*	*	*
!LO:TX:a:i:t=T.	!	!LO:TX:a:t=4tus	!	!	!	!	!	!
!LO:TX:b:i:t=Laudate D(omi)num.	!	!LO:TX:b:i:t=Laudate Dominum.	!LO:TX:b:t=Laudate Dominum.	!	!	!	!	!
4D\	.	8r	8r	8r	.	8r	.	.
.	.	8dd/L	16ff#\LL	8D\	Lau-	8ff#\	Lau-	Ec-
.	.	.	16gg\JJ	.	.	.	.	.
8F#\L	.	8dd/	8aa\L	8F#\	-da-	8ff#\	-da-	-ce
8A\J	.	8cc#/J	8ee\J	8A\	-te	8ee\	-te	nunc
8d\L	.	8dd\L	8ff#\L	8d\	Do-	8ff#\	Do-	Be-
16c#\L	.	16ee\L	8aa\J	16c#\	-mi-	16ee\	-mi-	-ne-
16d\JJ	.	16ff#\JJ	.	16d\	-nu(m)	16ff#\	-nu(m)	-di-
8e\L	X 6	8gg\L	16aa\LL	8e\	o(m-	8gg\	om-	-ci-
.	.	.	16aa\	.	.	.	.	.
8A\J	.	16ff#\L	16aa\	8A\	-n)es	16ff#\LL	-nes	-te
.	.	16ee\JJ	16aa\JJ	.	.	16ee\JJ	.	.
=2	=2	=2	=2	=2	=2	=2	=2	=2
!LO:TX:a:t=P:problem=mixed beam	!	!	!	!	!	!	!	!
8d\L	.	8ff#\L	8aa\L	8d\	gen-	8ff#\	gen-	Do-
8D/J	.	8dd\J	8ff#\J	8D/	-tes,	8dd\	-tes,	-minu(m)
8r	.	16r	16bb\LL	8r	.	8r	.	.
.	.	16ff#\LL	16bb\	.	.	.	.	.
*	*above	*	*	*	*	*	*	*
8d\	X 6	16ff#\	16bb\	8d\	lau-	8ff#\	lau-	om-
.	.	16ff#\JJ	16bb\JJ	.	.	.	.	.
8c#\L	X 7	8ee\L	16bb\LL	8c#\	-da-	8ee\	-da-	-nes
.	.	.	16ee\	.	.	.	.	.
8B\	.	8dd\	16ff#\	8B\	-te	8dd\	-te	ſer-
.	.	.	16gg\JJ	.	.	.	.	.
8c#\	X 6	8ee\	16aa\LL	8c#\	e-	8ee\	e-	-vi
.	.	.	16aa\	.	.	.	.	.
8A\J	.	8cc#\J	16aa\	8A\	-um	8cc#\	-um	.
.	.	.	16aa\JJ	.	.	.	.	.
=3	=3	=3	=3	=3	=3	=3	=3	=3
8B\L	X 7	8dd\L	16aa\LL	8B\L	om-	8dd\L	om-	Do-
.	.	.	16dd\	.	.	.	.	.
8A\	.	8cc#\	16ee\	8A\	.	8cc#\	.	.
.	.	.	16ff#\JJ	.	.	.	.	.
8B\	X 6	8dd\	16gg#X\LL	8B\J	.	8dd\J	.	.
.	.	.	16aa\	.	.	.	.	.
8E\J	.	8b\J	16bb\	8E\	-nes	8b\	-nes	-mi-
.	.	.	16aa\JJ	.	.	.	.	.
!	!	!	!LO:LB:g=original	!	!	!	!	!
8A\L	.	8cc#\L	4aa\	8A\L	po-	8cc#\L	po-	-ni
8D\J	.	8dd\J	.	8D\J	.	16ff#\L	.	.
.	.	.	.	.	.	16dd\JJ	.	.
!	!	!	!	!	!	!LO:LB:g=original	!	!
*	*reverse	*	*	*	*	*	*	*
4E\	X 4#	4b/	4gg#X\	8.E\	.	8.b\	.	Do-
*	*Xreverse	*	*	*	*	*	*	*
.	.	.	.	16E\	-pu-	16a\	-pu-	-mi-
!	!	!	!	!LO:LB:g=original	!	!	!	!
=4	=4	=4	=4	=4	=4	=4	=4	=4
!LO:TX:a:i:t=Solo.	!	!	!	!	!	!	!	!
!LO:TX:a:t=P:problem=mixed beam	!	!	!	!	!	!	!	!
8AA/L	.	4cc#\	4aa\	4AA/	-li,	4a\	-li,	-ni
8A\	.	.	.	.	.	.	.	.
8c#\	.	4r	4r	4r	.	8.a\	quo-	in
8B\J	.	.	.	.	.	.	.	.
.	.	.	.	.	.	16b\	-ni-	a-
!LO:TX:a:t=P:problem=mixed beam	!	!	!	!	!	!	!	!
8A\L	.	2r	2r	2r	.	4cc#\	-am	-tri-
8AA/	.	.	.	.	.	.	.	.
8C#/	X 5n	.	.	.	.	16cc#\LL	con-	-ji-
.	.	.	.	.	.	16dd\JJ	.	.
8AA/J	.	.	.	.	.	16ee\LL	-fir-	.
.	.	.	.	.	.	16g\JJ	.	-s
=5	=5	=5	=5	=5	=5	=5	=5	=5
8D\L	.	00r	00r	4r	.	8g/	-ma-	Do-
8d\	.	.	.	.	.	16f#/LL	-ta	-mus
.	.	.	.	.	.	16e/JJ	.	.
8d\	.	.	.	8r	.	8f#/	e(st)	De-
8D\J	.	.	.	8A\	et	16dd\	Su-	-i
.	.	.	.	.	.	16ee\	-per	no-
*custos:D	*	*	*	*	*	*	*	*
!LO:LB:g=original	!	!	!	!	!	!	!	!
8D\L	.	.	.	8A\	ve-	8ff#\	nos	.
8D\	.	.	.	16G\	-ri-	16a\LL	mi-	.
.	.	.	.	16F#\	-tas	16b\JJ	.	.
8E\	X 6-	.	.	8G\	Do-	8ccn\	-se-	-stri
8F#\J	.	.	.	16A\	-mi-	16b\LL	ri-	.
.	.	.	.	16A\	-ni	16a\JJ	.	.
=6	=6	=6	=6	=6	=6	=6	=6	=6
8G\L	.	.	.	16D\LL	ma-	8b\L	-cor-	no-
.	.	.	.	16E\JJ	.	.	.	.
8D\	.	.	.	8F#\	-net	8dd\	.	.
8E\	X 6	.	.	8G\	in	8cc#\J	.	.
8C#\J	.	.	.	16F#\LL	ae-	16b\	-di-	.
*	*	*	*	*2\right	*	*	*	*
.	.	.	.	16E\JJ	.	16b\	-a	.
!LO:TX:a:t=P:problem=mixed beam	!	!	!	!	!	!	!	!
8F#\L	X 4	.	.	2F#\	-ter-	(4b\	e-	-stri
8E\	.	.	.	.	.	.	.	.
8F#\	X #	.	.	.	.	4a#X\)	.	in
8FF#/J	.	.	.	.	.	.	.	.
!	!	!	!	!	!	!LO:LB:g=original	!	!
=7	=7	=7	=7	=7	=7	=7	=7	=7
!LO:TX:a:t=P:problem=mixed beam	!	!	!	!	!	!	!	!
8BB/L	.	.	.	8BB/	-num,	8b,\	-jus,	noc-
16B\L	.	.	.	4B\	Glo-	4b\	Glo-	-ti-
16A\JJ	.	.	.	.	.	.	.	.
8G#X\	6 3	.	.	.	.	.	.	.
.	X 3	.	.	.	.	.	.	.
4A\	4 2	.	.	16A\	-ri-	16cc#\	-ri-	-bus
.	.	.	.	16A\	-a	16cc#\	-a	.
.	.	.	.	4B\	Pa-	4dd\	Pa-	.
8G#\	X 3	.	.	.	.	.	.	.
8A\L	.	.	.	8A\	-tri,	8cc#\	-tri,	.
8F#\J	.	.	.	8F#\	et	16dd\LL	et	.
.	.	.	.	.	.	16cc#\JJ	.	.
!	!	!	!	!LO:LB:g=original	!	!	!	!
=8	=8	=8	=8	=8	=8	=8	=8	=8
8G\L	.	.	.	8.G\	Fi-	8b\	Fi-	.
8E\	X 6	.	.	.	.	8cc#\	-li-	.
.	.	.	.	16G\	-li-	.	.	.
8D\	.	.	.	8F#\	-o,	8dd\	-o,	.
8d\J	.	.	.	16A\	et	16ff#\	et	.
.	.	.	.	16A\	Spi-	16ff#\	Spi-	.
!LO:TX:a:t=P:problem=mixed beam	!	!	!	!	!	!	!	!
8G\L	6 5	.	.	16B\LL	-ri-	8ee\	-ri-	.
.	.	.	.	16A\JJ	.	.	.	.
8E\	.	.	.	16G\	-tu-	16dd\	-tu-	.
.	.	.	.	16F#\	-i	16ee\	-i	.
8A\	.	.	.	4E\	San-	4cc#\	San-	.
8AA/J	.	.	.	.	.	.	.	.
!	!	!LO:LB:g=original	!	!	!	!	!	!
=9	=9	=9	=9	=9	=9	=9	=9	=9
!LO:TX:a:i:t=T.	!	!	!	!	!	!	!	!
8D\L	.	8r	8r	8D\	-cto,	8dd\	-cto,	.
8D\	.	16aa\LL	16aa\LL	16D\	si-	16ff#\	si-	.
.	.	16aa\JJ	16aa\JJ	16D\	-cut	16ff#,\	-cut	.
8F#\	X 6	16ff#\LL	16aa\LL	16F#\	e-	16ff#\	e-	.
.	.	16ff#\	16aa\	16F#\	-rat	16ff#\	-rat	.
8A\J	.	16ee\	16aa\	16A\	in	16ee\	in	.
.	.	16ee\JJ	16aa\JJ	16A\	prin-	16ee\	pri(n)-	.
8F#\L	X 6	16dd\LL	16aa\LL	16F#\	-ci-	16dd\	-ci-	.
.	.	16dd\	16aa\	16F#\	-pi-	16dd\	-pi-	.
8D\	.	16ff#\	16aa\	16D\	-o,	16ff#\	-o,	.
.	.	16ff#\JJ	16aa\JJ	16D\	et	16ff#\	et	.
8F#\	.	16dd\LL	16aa\LL	8F#\	nu(n)c,	8dd\	nu(n)c	.
.	.	16dd\	16aa\	.	.	.	.	.
8A\J	.	16cc#\	16aa\	8A\	et	8ee\	et	.
.	.	16cc#\JJ	16aa\JJ	.	.	.	.	.
*	*	*	*	*custos:d	*	*	*	*
!	!	!	!	!LO:LB:g=original	!	!LO:LB:g=original	!	!
=10	=10	=10	=10	=10	=10	=10	=10	=10
!LO:TX:a:t=P:problem=mixed beam	!	!	!	!	!	!	!	!
8d\L	.	16dd\LL	16aa\LL	8d\	ſem-	8ff#\	ſem-	.
.	.	16dd\	16aa\	.	.	.	.	.
8D/	.	16dd\	16aa\	8D/	-per,	8ff#,\	-per,	.
.	.	16dd\JJ	16aa\JJ	.	.	.	.	.
8d\	.	16ff#\LL	16aa\LL	8d\	et	8ff#\	et	.
.	.	16ff#\	16aa\	.	.	.	.	.
8c#\J	.	16ee\	16aa\	8c#\	in	8ff#\	in	.
.	.	16ee\JJ	16aa\JJ	.	.	.	.	.
*	*	*	*custos:aa	*	*	*	*	*
!LO:LB:g=original	!	!	!LO:LB:g=original	!	!	!	!	!
8B\L	X 7	16dd\LL	16aa\LL	8B\	ſae-	8ff#\	ſae-	.
.	.	16dd\	16aa\	.	.	.	.	.
8A\	.	16cc#\	16aa\	16A\	-cu-	16ff#\	-cu-	.
.	.	16cc#\JJ	16aa\JJ	16A\	-la	16ff#\	-la	.
8B\	X 6	16dd\LL	16gg\LL	8B\	ſae-	8gg\	ſae-	.
.	.	16dd\	16gg\	.	.	.	.	.
8G\J	.	16b\	16gg\	8G\	-cu-	8gg\	-cu-	.
.	.	16b\JJ	16gg\JJ	.	.	.	.	.
=11	=11	=11	=11	=11	=11	=11	=11	=11
8A\L	X 7	16cc#\LL	16gg\LL	8A\L	-lo-	4gg\	-lo-	.
.	.	16cc#\	16gg\	.	.	.	.	.
8G\	.	16b\	16gg\	8G\	.	.	.	.
.	.	16b\JJ	16gg\JJ	.	.	.	.	.
8A\	X 6	16cc#\LL	16ff#\LL	8A\	.	4ff#\	-rum	.
.	.	16cc#\	16ff#\	.	.	.	.	.
8F#\J	.	16b\	16ff#\	8F#\J	.	.	.	.
.	.	16b\JJ	16ff#\JJ	.	.	.	.	.
8G\L	X 7	16cc#\LL	16ff#\LL	8G\L	.	4ff#\	a-	.
.	.	16cc#\	16ff#\	.	.	.	.	.
8F#\	.	16a\	16ff#\	8F#\	.	.	.	.
.	.	16a\JJ	16ff#\JJ	.	.	.	.	.
8G\	X 6	16b/LL	16ee\LL	8G\	.	8ee\L	.	.
.	.	16b/	16ee\	.	.	.	.	.
8E\J	.	16g/	16ee\	8E\J	.	8dd\J	.	.
.	.	16g/JJ	16ee\JJ	.	.	.	.	.
!	!	!LO:LB:g=original	!	!	!	!	!	!
=12	=12	=12	=12	=12	=12	=12	=12	=12
*	*	*2\right	*	*	*	*	*	*
4A\	.	8a/L	8ee\L	4A\	.	4cc#\	.	.
.	.	8cc#/J	16aa\L	.	.	.	.	.
.	.	.	16gg\JJ	.	.	.	.	.
4D\	.	2dd\	8ff#\L	4D\	-rum	4dd,\	-men	.
.	.	.	16ee\L	.	.	.	.	.
.	X 4	.	16dd\JJ	.	.	.	.	.
*	*	*	*	*	*	*	*ij	*
2AA/	X 3	.	4ff#\	2AA/	a-	(4dd\	a-	.
.	.	4cc#\	4ee\	.	.	4cc#\)	.	.
!	!	!	!LO:LB:g=original	!	!	!	!	!
=13	=13	=13	=13	=13	=13	=13	=13	=13
*	*	*	*2\right	*	*	*2\right	*	*
4D/	.	4dd\	4dd\	4D\	-men	4dd\	-men	.
4r	.	4r	4r	4r	.	4r	.	.
2GG/	.	2gg\	2bb\	2GG/	a-	2dd\	a-	.
=14	=14	=14	=14	=14	=14	=14	=14	=14
1D	.	1ff#	1aa	1D	-men	1dd	-men	.
*	*	*	*	*	*	*	*Xij	*
!	!	!LO:TX:a:t=P:||:problem=w źródle końcowa kreska taktowa - 	!	!	!	!	!	!
==;;	==;;	==;;	==	==;	==	==;;	==	==
*-	*-	*-	*-	*-	*-	*-	*-	*-
!!!system-decoration: [g1][g2]s5
!!!EED: Antoni Szymański
!!!EEV: 2020-12-29
!!!ENC: Andrzej Borzym
!!!END: 2020-06-23
!!!YEC: Copyright 2022 Narodowy Instytut Fryderyka Chopina (https://polishscores.org)
!!!YEM: License CC-BY-4.0 (https://creativecommons.org/licenses/by/4.0)
